images/icons/pinterest.svg

<svg fill="none" height="24" viewBox="0 0 24 24" width="24" xmlns="http://www.w3.org/2000/svg" xmlns:xlink="http://www.w3.org/1999/xlink"><clipPath id="a"><path d="m0 0h24v24h-24z"/></clipPath><g clip-path="url(#a)"><path d="m12 24c6.6274 0 12-5.3726 12-12 0-6.62742-5.3726-12-12-12-6.62742 0-12 5.37258-12 12 0 6.6274 5.37258 12 12 12z" fill="#fff"/><path d="m12 0c-6.62716 0-12 5.37284-12 12 0 5.0864 3.16049 9.4321 7.62469 11.1802-.10864-.9481-.19753-2.4098.03951-3.4469.21728-.9382 1.40247-5.9654 1.40247-5.9654s-.35556-.721-.35556-1.7778c0-1.6691.9679-2.91356 2.17289-2.91356 1.0271 0 1.5209.77037 1.5209 1.68886 0 1.0272-.6518 2.5679-.9975 4-.2864 1.1951.6025 2.1729 1.7778 2.1729 2.1333 0 3.7728-2.2519 3.7728-5.4914 0-2.87406-2.0642-4.879-5.0173-4.879-3.41724 0-5.42218 2.55803-5.42218 5.2049 0 1.0272.39506 2.1334.88889 2.7358.09876.1186.10864.2272.07901.3457-.08889.3753-.2963 1.1951-.3358 1.363-.04939.2173-.17778.2667-.40494.158-1.50124-.7012-2.43951-2.8839-2.43951-4.6518 0-3.78276 2.74568-7.2593 7.93083-7.2593 4.1581 0 7.3976 2.96296 7.3976 6.9333 0 4.1383-2.6074 7.4667-6.2223 7.4667-1.2148 0-2.3604-.6321-2.7456-1.3827 0 0-.6025 2.2913-.75065 2.8543-.26667 1.0469-.99753 2.3506-1.49136 3.1506 1.12593.3457 2.31111.5334 3.55551.5334 6.6272 0 12-5.3729 12-12 .0198-6.64696-5.353-12.0198-11.9802-12.0198z" fill="#e60023"/></g></svg>

<svg width="24" height="24" viewBox="0 0 24 24" fill="none" xmlns="http://www.w3.org/2000/svg">
<g clip-path="url(#clip0)">
<path d="M12 24C18.6274 24 24 18.6274 24 12C24 5.37258 18.6274 0 12 0C5.37258 0 0 5.37258 0 12C0 18.6274 5.37258 24 12 24Z" fill="white"/>
<path d="M12 0C5.37284 0 0 5.37284 0 12C0 17.0864 3.16049 21.4321 7.62469 23.1802C7.51605 22.2321 7.42716 20.7704 7.6642 19.7333C7.88148 18.7951 9.06667 13.7679 9.06667 13.7679C9.06667 13.7679 8.71111 13.0469 8.71111 11.9901C8.71111 10.321 9.67901 9.07654 10.884 9.07654C11.9111 9.07654 12.4049 9.84691 12.4049 10.7654C12.4049 11.7926 11.7531 13.3333 11.4074 14.7654C11.121 15.9605 12.0099 16.9383 13.1852 16.9383C15.3185 16.9383 16.958 14.6864 16.958 11.4469C16.958 8.57284 14.8938 6.5679 11.9407 6.5679C8.52346 6.5679 6.51852 9.12593 6.51852 11.7728C6.51852 12.8 6.91358 13.9062 7.40741 14.5086C7.50617 14.6272 7.51605 14.7358 7.48642 14.8543C7.39753 15.2296 7.19012 16.0494 7.15062 16.2173C7.10123 16.4346 6.97284 16.484 6.74568 16.3753C5.24444 15.6741 4.30617 13.4914 4.30617 11.7235C4.30617 7.94074 7.05185 4.4642 12.237 4.4642C16.3951 4.4642 19.6346 7.42716 19.6346 11.3975C19.6346 15.5358 17.0272 18.8642 13.4123 18.8642C12.1975 18.8642 11.0519 18.2321 10.6667 17.4815C10.6667 17.4815 10.0642 19.7728 9.91605 20.3358C9.64938 21.3827 8.91852 22.6864 8.42469 23.4864C9.55062 23.8321 10.7358 24.0198 11.9802 24.0198C18.6074 24.0198 23.9802 18.6469 23.9802 12.0198C24 5.37284 18.6272 0 12 0Z" fill="#E60023"/>
</g>
<defs>
<clipPath id="clip0">
<rect width="24" height="24" fill="white"/>
</clipPath>
</defs>
</svg>
